X: 071
T: a Trip to Hanau
B: 204 Favourite Country Dances
N: Published by Straight & Skillern, London ca.1775
F: http://imslp.org/wiki/204_Favourite_Country_Dances_(Various) p.36 #71
Z: 2014 John Chambers <jc:trillian.mit.edu>
M: 6/8
L: 1/8
K: A
% - - - - - - - - - - - - - - - - - - - - - - - - -
e |\
cdc c2d | efe e2d | c2B A2G | AEC A,2c |\
B2A G2F | GeB B2A | G2F E2^D | EFE E2 :|
|: e |\
cdc c2e | dfd B2d | BcB B2d | cec A2E |\
cdc c2B | ABA A2C | D2C B,2E | AEC A,2 :|
% - - - - - - - - - - - - - - - - - - - - - - - - -
%%begintext align
%% The 1st Man cast off & turn the 3d Wo. & stay in the
%% 2d Mans place .| the 1st Wo. cast off turn the 3d Man &
%% go to the 2d Wo.s place :| foot it all 6 & change sides .|.
%% foot it all 6 again every Gent.n turns his Partner
%% into their proper places :|
%%endtext

%%sep 1 1 500
%%sep 1 1 500
